X: 21408
T: Kesh, The
R: jig
M: 6/8
K: Gmajor
|:BGG dGG|ege dBA|BGG dGG|~A3 ABc|
BGG dGG|ege dBd|gbg aga|bgg g2d:|
|:G2F GAB|A2G ABd|edd gdd|edB dBA|
G2F GAB|A2G ABd|edd gdB|1 AGF GBA:|2 AGF G2A||

